X:7
T:The Morning Star
T:R\'ealt na Maidne
C:Traditional
M:C
L:1/8
Q:1/4=80
K:D
GA | B2 BA BGEF | G2 Bd efgd | B2 BA BGEF | GBAF G2 GA |
B2 BA BGEF | GABd efgd | B2 BA BGEF | GBAF G2 ||
|: GA | Bdef Tg2 eg | Tf2 df edBA | Bdef gfgb | afdf e2 ed |
Bdef g2 eg | f2 df edBA |Bddc d(ee)f | gfaf e2 :|

